icons/cache-24.svg

<svg width="24" height="24" viewBox="0 0 24 24">
  <path
    d="M5.50524 9.11687C4.94877 8.87198 4.44148 8.58805 4.00792 8.2654V11.9999C4.00792 12.5235 4.48147 13.2304 5.8074 13.8834C7.07488 14.5076 8.89314 14.9544 10.9883 15.0647C11.4072 15.0867 11.7289 15.4442 11.7069 15.8631C11.6848 16.282 11.3274 16.6037 10.9085 16.5817C8.66616 16.4637 6.63443 15.984 5.13626 15.2462C4.7351 15.0487 4.35195 14.8215 4.00792 14.5652V18.3011V18.3011C4.00795 18.583 4.1346 18.9105 4.48362 19.2736C4.83628 19.6405 5.38297 20.0056 6.11714 20.3287C7.58335 20.974 9.66207 21.3922 11.9984 21.3922C12.5754 21.3922 13.1381 21.3667 13.6808 21.3182C14.0986 21.2809 14.4676 21.5894 14.5049 22.0072C14.5422 22.425 14.2338 22.794 13.816 22.8313C13.2278 22.8838 12.62 22.9113 11.9984 22.9113C9.50218 22.9113 7.2059 22.4676 5.50524 21.7191C4.65597 21.3454 3.92125 20.8807 3.38836 20.3263C2.85188 19.7681 2.48885 19.0825 2.48882 18.3011V18.3011V5.69873C2.48884 4.91733 2.85188 4.23178 3.38836 3.67358C3.92125 3.11912 4.65597 2.65445 5.50524 2.2807C7.2059 1.53226 9.50218 1.0885 11.9984 1.0885C14.4946 1.0885 16.7908 1.53226 18.4915 2.2807C19.3408 2.65445 20.0755 3.11912 20.6084 3.67358C21.1449 4.23179 21.5079 4.91737 21.5079 5.69878C21.5079 6.4802 21.1449 7.16578 20.6084 7.72399C20.0755 8.27845 19.3408 8.74312 18.4915 9.11687C16.7908 9.86531 14.4946 10.3091 11.9984 10.3091C9.50218 10.3091 7.2059 9.86531 5.50524 9.11687ZM4.48362 4.72623C4.13459 5.08938 4.00794 5.41681 4.00792 5.69873C4.00792 5.98066 4.13457 6.30816 4.48362 6.67134C4.83628 7.03827 5.38297 7.40336 6.11714 7.72646C7.58335 8.37172 9.66207 8.78997 11.9984 8.78997C14.3347 8.78997 16.4134 8.37172 17.8796 7.72646C18.6138 7.40336 19.1605 7.03827 19.5131 6.67134C19.8622 6.30816 19.9888 5.98072 19.9888 5.69878C19.9888 5.41685 19.8622 5.08941 19.5131 4.72623C19.1605 4.3593 18.6138 3.99421 17.8796 3.67111C16.4134 3.02585 14.3347 2.6076 11.9984 2.6076C9.66207 2.6076 7.58335 3.02585 6.11714 3.67111C5.38297 3.99421 4.83628 4.3593 4.48362 4.72623Z"
  />
  <path
    d="M21.4253 11.1098C21.4766 10.8817 21.363 10.6485 21.1518 10.5483C20.9406 10.4481 20.6882 10.5076 20.544 10.6916L15.1065 17.6291C14.9885 17.7797 14.9667 17.9844 15.0504 18.1564C15.1342 18.3284 15.3087 18.4375 15.5 18.4375H18.7676L17.8234 22.8965C17.7748 23.1255 17.8918 23.3575 18.1047 23.4548C18.3177 23.5521 18.5697 23.4886 18.7111 23.302L23.3986 17.1145C23.5132 16.9632 23.5322 16.76 23.4478 16.59C23.3633 16.42 23.1898 16.3125 23 16.3125H20.2551L21.4253 11.1098Z"
  />
</svg>

<svg xmlns="http://www.w3.org/2000/svg" width="24" height="24" viewBox="0 0 24 24"><path d="M5.505 9.117a7.723 7.723 0 0 1-1.497-.852V12c0 .524.473 1.23 1.8 1.883 1.267.625 3.085 1.071 5.18 1.182a.76.76 0 0 1-.08 1.517c-2.242-.118-4.274-.598-5.772-1.336a7.264 7.264 0 0 1-1.128-.68V18.3c0 .282.127.61.476.973.352.366.899.732 1.633 1.055 1.466.645 3.545 1.063 5.881 1.063.577 0 1.14-.025 1.683-.074a.76.76 0 0 1 .135 1.513 20.47 20.47 0 0 1-1.818.08c-2.496 0-4.792-.443-6.493-1.192-.849-.374-1.584-.838-2.117-1.393-.536-.558-.9-1.244-.9-2.025V5.7c0-.782.364-1.467.9-2.025.533-.555 1.268-1.02 2.117-1.393 1.7-.749 3.997-1.193 6.493-1.193 2.497 0 4.793.444 6.493 1.193.85.373 1.585.838 2.117 1.393.537.558.9 1.243.9 2.025 0 .781-.363 1.467-.9 2.025-.532.554-1.267 1.02-2.117 1.393-1.7.748-3.996 1.192-6.493 1.192-2.496 0-4.792-.444-6.493-1.192Zm-1.021-4.39c-.35.362-.476.69-.476.972 0 .282.127.61.476.972.352.367.899.732 1.633 1.055 1.466.646 3.545 1.064 5.881 1.064 2.337 0 4.415-.418 5.882-1.064.734-.323 1.28-.688 1.633-1.055.35-.363.476-.69.476-.972 0-.282-.127-.61-.476-.973-.353-.367-.9-.732-1.633-1.055-1.467-.645-3.545-1.063-5.882-1.063-2.336 0-4.415.418-5.88 1.063-.735.323-1.282.688-1.634 1.055Z"/><path d="M21.425 11.11a.5.5 0 0 0-.881-.418l-5.438 6.937a.5.5 0 0 0 .394.808h3.268l-.945 4.46a.5.5 0 0 0 .888.405l4.688-6.188a.5.5 0 0 0-.399-.802h-2.745l1.17-5.202Z"/></svg>
